remix/Media/movie-2-line.svg

<svg viewBox="0 0 24 24" fill="currentColor" xmlns="http://www.w3.org/2000/svg"><path d="M12 20H20V22H12C6.47715 22 2 17.5228 2 12C2 6.47715 6.47715 2 12 2C17.5228 2 22 6.47715 22 12C22 14.2512 21.2561 16.3287 20.0007 18H17.2916C18.9525 16.5341 20 14.3894 20 12C20 7.58172 16.4183 4 12 4C7.58172 4 4 7.58172 4 12C4 16.4183 7.58172 20 12 20ZM12 10C10.8954 10 10 9.10457 10 8C10 6.89543 10.8954 6 12 6C13.1046 6 14 6.89543 14 8C14 9.10457 13.1046 10 12 10ZM8 14C6.89543 14 6 13.1046 6 12C6 10.8954 6.89543 10 8 10C9.10457 10 10 10.8954 10 12C10 13.1046 9.10457 14 8 14ZM16 14C14.8954 14 14 13.1046 14 12C14 10.8954 14.8954 10 16 10C17.1046 10 18 10.8954 18 12C18 13.1046 17.1046 14 16 14ZM12 18C10.8954 18 10 17.1046 10 16C10 14.8954 10.8954 14 12 14C13.1046 14 14 14.8954 14 16C14 17.1046 13.1046 18 12 18Z"/></svg>

<svg viewBox="0 0 24 24" xmlns="http://www.w3.org/2000/svg"><path fill="none" d="M0 0h24v24H0Z"/><path d="M12 20h8v2h-8C6.477 22 2 17.523 2 12 2 6.477 6.477 2 12 2c5.523 0 10 4.477 10 10v0c0 2.16-.7 4.27-2 6h-2.71v0c3.31-2.93 3.63-7.98.7-11.3 -2.93-3.32-7.98-3.64-11.3-.71 -3.32 2.92-3.64 7.97-.71 11.29 1.51 1.72 3.7 2.7 5.99 2.7Zm0-10v0c-1.11 0-2-.9-2-2 0-1.11.89-2 2-2v0c1.1 0 2 .89 2 2 0 1.1-.9 2-2 2Zm-4 4v0c-1.11 0-2-.9-2-2 0-1.11.89-2 2-2v0c1.1 0 2 .89 2 2 0 1.1-.9 2-2 2Zm8 0v0c-1.11 0-2-.9-2-2 0-1.11.89-2 2-2v0c1.1 0 2 .89 2 2 0 1.1-.9 2-2 2Zm-4 4v0c-1.11 0-2-.9-2-2 0-1.11.89-2 2-2v0c1.1 0 2 .89 2 2 0 1.1-.9 2-2 2Z"/></svg>
